static/assets/images/exchanges/ramses.svg

<svg width="385" height="256" viewBox="0 0 385 256" fill="none" xmlns="http://www.w3.org/2000/svg">
<path d="M222.426 2.29041L203.753 88.0301H180.159L176.134 69.5339L173.156 55.6564L161.102 0.370384C181.568 -0.493626 202.066 0.157048 222.426 2.29041ZM163.141 88.0301L132.522 3.52775C118.611 5.63978 104.967 9.18115 91.793 14.0985L125.882 69.5339L137.22 88.0301H163.141ZM341.752 106.537L355.247 143.551H261.596L264.639 106.537H341.752ZM375.841 199.061H256.952L260.006 162.047H362.304L375.841 199.061ZM347.464 256H251.924L256.087 218.752H384.339L347.464 256ZM132.416 256H36.8752L0 218.752H128.252L132.416 256ZM122.722 143.54L119.69 106.537H42.3521L28.9215 143.551H122.732L122.722 143.54ZM127.366 199.061H8.45546L21.9287 162.047H124.334L127.387 199.061H127.366ZM284.304 27.8907L292.343 14.9412C292.343 14.9412 275.689 10.4505 250.418 6.36512L220.782 88.0301H246.714L258.255 69.5445L266.966 55.667L284.304 27.8907ZM306.788 27.8907L265.408 88.0301H333.35L310.706 27.8907H306.788ZM118.505 88.0301L77.1348 27.8907H73.2166L50.5726 88.0301H118.505Z" fill="#C6FAFD"/>
</svg>

<svg xmlns="http://www.w3.org/2000/svg" fill="none" viewBox="0 0 385 256"><path fill="#C6FAFD" d="m222.426 2.29-18.673 85.74h-23.594l-4.025-18.496-2.978-13.878L161.102.37a419 419 0 0 1 61.324 1.92m-59.285 85.74L132.522 3.528a204 204 0 0 0-40.729 10.57l34.089 55.436L137.22 88.03zm178.611 18.507 13.495 37.014h-93.651l3.043-37.014zm34.089 92.524H256.952l3.054-37.014h102.298zM347.464 256h-95.54l4.163-37.248h128.252zm-215.048 0h-95.54L0 218.752h128.252zm-9.694-112.46-3.032-37.003H42.352l-13.43 37.014h93.81zm4.644 55.521H8.456l13.473-37.014h102.405l3.053 37.014zm156.938-171.17 8.039-12.95s-16.654-4.49-41.925-8.576L220.782 88.03h25.932l11.541-18.485 8.711-13.878zm22.484 0-41.38 60.14h67.942l-22.644-60.14zM118.505 88.03l-41.37-60.14h-3.918L50.573 88.03z"/></svg>
